X:694
T:Reel 694
M:4/4
K:Dmaj
L:1/8
 (3ABc |d2cA BFAF|GFEF GBAG|FDAD BdAF|GBAF EFEA|d2AF DFAc|dBAF EFEc|d2 (3ABc dfed|cABc d2|Bc|d2fd  (3fga fd|g2ed fdAc|d2fd adfd|ceAc edBc|d2fd afed|cdef gefg| (3agf  (3gfe fded|BGEF GABc|
